X:15430
%10694
T:Merrily Kiss the Quaker's Wife
T:Merrily Dance the Quaker
Z:Boston
R:slide
K:Cmaj
M:4/4
G,|CDE G,2E
%Error : Bar 1 is 3/4 not 4/4
|F2D ECA,
%Error : Bar 2 is 3/4 not 4/4
|CDE G,A,C
%Error : Bar 3 is 3/4 not 4/4
|~D3 D2G,
%Error : Bar 4 is 3/4 not 4/4
|CDE G,2E
%Error : Bar 5 is 3/4 not 4/4
|F2D ECA,
%Error : Bar 6 is 3/4 not 4/4
|CDE G,2 A,
%Error : Bar 7 is 3/4 not 4/4
|C3 C2:|
F
%Error : Bar 9 is 3/4 not 4/4
|ECCDCC
%Error : Bar 10 is 3/4 not 4/4
|ECC DCA,
%Error : Bar 11 is 3/4 not 4/4
|CDE G,A,C
%Error : Bar 12 is 3/4 not 4/4
|D3 DCD
%Error : Bar 13 is 3/4 not 4/4
|ECC DCC
%Error : Bar 14 is 3/4 not 4/4
|ECC DCA,
%Error : Bar 15 is 3/4 not 4/4
|CDE G,2A,
%Error : Bar 16 is 3/4 not 4/4
|C3 C2
%Warning : No repeat expected, found :|
:|
G
%Error : Bar 18 is 3/4 not 4/4
|~c3 dcd
%Error : Bar 19 is 3/4 not 4/4
|ecA GEG
%Error : Bar 20 is 3/4 not 4/4
|~c3 cde
%Error : Bar 21 is 3/4 not 4/4
|~d3 ded
%Error : Bar 22 is 3/4 not 4/4
|cec BdB
%Error : Bar 23 is 3/4 not 4/4
|AcA GED
%Error : Bar 24 is 3/4 not 4/4
|CDE G,2 A,
%Error : Bar 25 is 3/4 not 4/4
|C3 C2
%Warning : No repeat expected, found :|
:|

%Error : *'s in middle of line ignored

%Error : Malformed note : expecting a-g or A-G
 SIP JICS ******************************


